img/logo/viber.svg

<svg width="31" height="31" viewBox="0 0 31 31" fill="none" xmlns="http://www.w3.org/2000/svg">
<rect x="7" y="6" width="19" height="19" fill="white"/>
<path fill-rule="evenodd" clip-rule="evenodd" d="M14.524 0.013914C13.2431 0.124625 12.1645 0.315957 11.1349 0.615149C6.10995 2.07544 2.06207 6.12332 0.601781 11.1483C0.171192 12.6301 0 13.8702 0 15.5079C0 17.1457 0.171192 18.3858 0.601781 19.8676C2.00996 24.7131 5.79129 28.6279 10.6176 30.2369C12.2246 30.7727 13.6515 30.9974 15.4642 31C17.1348 31.0024 18.3586 30.8353 19.8542 30.4007C23.8378 29.243 27.2714 26.4314 29.2255 22.7269C30.4308 20.4418 30.9855 18.1669 30.9855 15.5079C30.9855 12.0172 29.9775 8.98342 27.8866 6.18077C25.4301 2.88827 21.731 0.721492 17.5571 0.130327C16.9247 0.0407272 15.0471 -0.0313408 14.524 0.013914ZM18.5581 7.48946C20.6262 8.0583 22.1535 9.60679 22.6966 11.6855C22.8322 12.2044 22.8506 12.4181 22.879 13.8094C22.9261 16.1122 22.8203 16.8633 22.2938 17.9648C21.5292 19.5646 20.1987 20.6457 18.4367 21.0991C18.0148 21.2077 17.7099 21.2278 16.1012 21.2529L14.251 21.2818L13.0343 22.4896C11.3611 24.1508 11.3695 24.153 11.3695 22.0609V20.6939L10.9104 20.4233C9.38741 19.5254 8.3434 17.8684 8.15716 16.0534C8.07733 15.2757 8.07545 13.1572 8.15395 12.4748C8.38671 10.451 9.52803 8.81586 11.3391 7.91143C12.4275 7.36789 12.7776 7.32179 15.6766 7.34053C17.9312 7.35509 18.1014 7.36389 18.5581 7.48946ZM15.7777 9.66406C15.7554 9.68626 15.7372 9.78132 15.7372 9.87523C15.7372 10.0721 15.7717 10.0842 16.474 10.134C17.8694 10.233 19.0053 11.174 19.41 12.5659C19.4919 12.8474 19.5078 13.0761 19.4845 13.6393C19.4621 14.1839 19.474 14.3706 19.5345 14.4208C19.6612 14.526 19.8239 14.4596 19.9195 14.2636C20.0522 13.992 20.0404 12.8506 19.9001 12.3838C19.5082 11.0793 18.4412 10.0381 17.1652 9.71514C16.8024 9.62329 15.8534 9.58835 15.7777 9.66406ZM12.4834 10.5372C12.2325 10.5885 12.0228 10.7439 11.5759 11.21C11.0734 11.734 10.9857 11.9199 10.9889 12.4543C10.9981 13.9723 12.5935 16.3128 14.6949 17.8913C15.3484 18.3822 16.4533 18.962 16.9622 19.0811C17.3526 19.1725 17.8853 19.1647 18.1202 19.0642C18.2276 19.0183 18.5655 18.7241 18.8713 18.4105C19.4979 17.7677 19.58 17.5799 19.4111 17.1757C19.3053 16.9225 18.1175 15.674 17.8483 15.5331C17.4453 15.3221 17.0087 15.4959 16.7685 15.9629C16.3992 16.681 15.6594 16.6538 14.7576 15.8891C14.0649 15.3017 13.5531 14.5103 13.5536 14.0272C13.5539 13.6826 13.7412 13.4021 14.0673 13.2579C14.509 13.0625 14.6969 12.7388 14.6167 12.3113C14.5828 12.1304 14.4288 11.9417 13.8063 11.3179C13.0013 10.5115 12.9004 10.4519 12.4834 10.5372ZM15.8082 10.7686C15.7623 10.7976 15.7361 10.8955 15.7475 10.9951C15.7675 11.1701 15.7688 11.1706 16.2864 11.2061C17.2021 11.2688 17.8144 11.6642 18.198 12.4404C18.384 12.8169 18.4202 12.9566 18.4343 13.3537C18.4455 13.6719 18.4779 13.8396 18.5348 13.8757C18.9059 14.1107 19.0677 13.5495 18.8594 12.7499C18.5461 11.5471 17.4973 10.7138 16.3003 10.7164C16.074 10.717 15.8526 10.7404 15.8082 10.7686ZM16.0203 11.8479C15.9544 11.9138 15.9742 12.1415 16.0527 12.22C16.0927 12.26 16.2002 12.2928 16.2914 12.2928C16.8032 12.2928 17.2451 12.7199 17.343 13.3091C17.377 13.514 17.4161 13.5747 17.5329 13.604C17.7126 13.6491 17.8604 13.538 17.8604 13.358C17.8604 12.8284 17.435 12.1896 16.9236 11.9515C16.6318 11.8157 16.1122 11.7561 16.0203 11.8479Z" fill="#665CAC"/>
</svg>

<svg xmlns="http://www.w3.org/2000/svg" width="31" height="31" fill="none" viewBox="0 0 31 31"><path fill="#fff" d="M7 6h19v19H7z"/><path fill="#665cac" fill-rule="evenodd" d="M14.524.014c-1.28.11-2.36.302-3.39.601C6.11 2.075 2.063 6.123.603 11.148.172 12.63 0 13.87 0 15.508s.171 2.878.602 4.36c1.408 4.845 5.19 8.76 10.016 10.369 1.607.536 3.034.76 4.846.763 1.67.002 2.895-.165 4.39-.6 3.984-1.157 7.417-3.969 9.372-7.673 1.205-2.285 1.76-4.56 1.76-7.22 0-3.49-1.009-6.524-3.1-9.326C25.43 2.888 21.732.72 17.558.13c-.632-.09-2.51-.162-3.033-.117m4.034 7.475c2.068.57 3.596 2.118 4.139 4.196.135.52.154.733.182 2.124.047 2.303-.059 3.054-.585 4.156-.765 1.6-2.095 2.68-3.857 3.134-.422.109-.727.129-2.336.154l-1.85.029-1.217 1.208c-1.673 1.66-1.665 1.663-1.665-.43v-1.366l-.459-.27c-1.523-.899-2.567-2.556-2.753-4.37-.08-.778-.082-2.897-.003-3.58.233-2.023 1.374-3.658 3.185-4.563 1.088-.543 1.439-.59 4.338-.57 2.254.014 2.424.023 2.881.148m-2.78 2.175c-.023.022-.04.117-.04.211 0 .197.034.21.736.259 1.395.099 2.531 1.04 2.936 2.432.082.281.098.51.075 1.073-.023.545-.011.732.05.782.126.105.289.039.384-.157.133-.272.121-1.413-.019-1.88-.392-1.305-1.459-2.346-2.735-2.669-.363-.092-1.312-.127-1.387-.05m-3.295.873c-.25.051-.46.207-.907.673-.503.524-.59.71-.587 1.244.01 1.518 1.604 3.859 3.706 5.437.653.491 1.758 1.071 2.267 1.19.39.091.923.084 1.158-.017.108-.046.445-.34.751-.654.627-.642.709-.83.54-1.234-.106-.253-1.294-1.502-1.563-1.643-.403-.21-.84-.037-1.08.43-.369.718-1.109.69-2.01-.074-.693-.587-1.205-1.379-1.204-1.862a.82.82 0 0 1 .513-.77c.442-.194.63-.518.55-.946-.034-.18-.188-.37-.81-.993-.806-.806-.907-.866-1.324-.78m3.325.232c-.046.029-.072.127-.06.226.02.175.02.176.538.211.916.063 1.528.458 1.912 1.234.186.377.222.517.236.914.011.318.044.486.1.522.372.235.534-.326.325-1.126-.313-1.203-1.362-2.036-2.559-2.034-.226.001-.447.024-.492.053m.212 1.079c-.066.066-.046.293.033.372.04.04.147.073.238.073.512 0 .954.427 1.052 1.016.034.205.073.266.19.295.18.045.327-.066.327-.246 0-.53-.425-1.168-.936-1.407-.292-.135-.812-.195-.904-.103" clip-rule="evenodd"/></svg>
